svg/u1f44a_1f3ff.svg

<svg viewBox="0 0 128 128" xmlns="http://www.w3.org/2000/svg">
  <defs>
    <radialGradient id="c" cx="115.416428" cy="-102.861184" gradientTransform="matrix(0.7169 -0.0587 -0.0651 -0.7957 0 0)" gradientUnits="userSpaceOnUse" r="44.273">
      <stop offset=".3" stop-color="#70534A"/>
      <stop offset=".8" stop-color="#5C4037"/>
    </radialGradient>
    <radialGradient id="b" cx="44.233" cy="38.396" gradientUnits="userSpaceOnUse" r="89.07">
      <stop offset=".4" stop-color="#70534A"/>
      <stop offset=".9991" stop-color="#5C4037"/>
    </radialGradient>
  </defs>
  <path d="M81.56,73.92 C81.8,77.03 79.86,79.83 76.82,80.6 C74.95,81.07 75.74,83.97 77.62,83.49 C81.87,82.41 84.9,78.31 84.57,73.92 C84.41,72 81.41,71.99 81.56,73.92 Z" fill="#EDA600"/>
  <path d="M72.67,113.56 C71.79,113.56 71,113.46 70.24,113.26 C70.12,113.23 70,113.21 69.88,113.21 C67.11,113.17 65,111.26 63.72,109.67 C61.02,106.33 59.57,101.33 60.27,97.78 C61.18,93.18 63.9,87.69 71.68,87.69 C72.42,87.69 73.19,87.74 73.99,87.84 C78.11,88.35 81.78,88.6 84.88,88.6 C97.26,88.6 101.15,84.64 103.18,78.7 C105.61,71.57 107.99,45.39 108.92,34.2 C111.09,38.67 114.34,46.47 116.77,57.19 C118.17,63.38 119.49,69.88 120.7,76.53 C122.54,86.64 120.86,96.94 115.97,105.52 C113.02,110.71 110.71,112.2 109.29,112.53 C107.91,112.85 106.76,113.01 105.76,113.01 C104.2,113.01 103.12,112.62 101.76,112.14 C99.73,111.42 97.21,110.51 92.29,110.51 L91.75,110.51 C86.92,110.57 83.04,111.53 79.61,112.37 C77,113.01 74.75,113.56 72.67,113.56 Z" fill="url(#c)"/>
  <path d="M109.91,40.13 C111.69,44.51 113.68,50.35 115.3,57.52 C116.69,63.67 118.01,70.16 119.21,76.79 C120.98,86.55 119.37,96.49 114.65,104.77 C111.72,109.93 109.67,110.89 108.93,111.06 C107.67,111.36 106.62,111.5 105.74,111.5 C104.44,111.5 103.57,111.19 102.24,110.71 C100.1,109.95 97.44,108.99 92.26,108.99 L91.71,108.99 C86.71,109.05 82.56,110.07 79.23,110.89 C76.72,111.51 74.55,112.04 72.66,112.04 C71.92,112.04 71.25,111.96 70.61,111.79 C70.38,111.73 70.14,111.69 69.89,111.69 C67.59,111.65 65.76,109.8 64.87,108.71 C62.46,105.73 61.11,101.15 61.73,98.05 C62.9,92.16 66.24,89.17 71.67,89.17 C72.35,89.17 73.06,89.22 73.8,89.31 C78.04,89.83 81.66,90.08 84.87,90.08 C96.23,90.08 101.94,86.92 104.59,79.16 C106.71,72.98 108.77,52.88 109.91,40.13 M107.82,29.02 C107.82,29.02 104.77,69.34 101.75,78.22 C100,83.35 96.73,87.11 84.87,87.11 C81.88,87.11 78.35,86.87 74.17,86.36 C73.3,86.25 72.47,86.2 71.68,86.2 C64.28,86.2 60.15,90.72 58.8,97.49 C57.48,104.13 62.64,114.6 69.86,114.71 C70.79,114.96 71.72,115.06 72.68,115.06 C77.76,115.06 83.39,112.12 91.77,112.01 L92.29,112.01 C100.36,112.01 101.45,114.51 105.76,114.51 C106.81,114.51 108.05,114.36 109.63,113.99 C112.45,113.33 115.06,110.15 117.27,106.26 C122.43,97.19 124.04,86.53 122.17,76.26 C121.19,70.84 119.86,64.09 118.23,56.86 C114.14,38.82 107.82,29.02 107.82,29.02 Z" fill="#4A2F27"/>
  <path d="M113.17,60.73 C111.6,41.32 111.29,18.3 95.28,18.27 C92.68,18.26 90.23,18.97 88.1,20.02 C85.8,21.16 83.05,20.62 81.44,18.62 C78.66,15.16 74.34,12.94 69.47,12.94 C64.26,12.94 59.66,15.49 56.92,19.39 C55.41,21.54 52.55,22.13 50.29,20.78 C48.58,19.76 46.67,19.14 44.63,19.03 C40.52,18.81 36.63,20.66 33.6,23.86 C32.76,24.75 31.54,25.15 30.35,24.89 C19.23,22.42 15.93,30.66 13.05,40.54 C13.05,40.54 -2.67,84.23 16.33,87.9 C17.78,88.18 21.44,88.77 22.76,88.63 C25.14,88.37 27.48,89.29 29.23,90.92 C32.01,93.51 35.43,95.13 38.9,95.32 C42.32,95.51 45.9,94.73 49.03,93.04 C51.24,91.85 53.93,92.64 55.33,94.73 C58.31,99.18 63.01,101.58 68.66,101.58 C73.18,101.58 78.39,100.26 81.51,97.22 C84.85,93.96 89.95,93.52 93.83,96.11 C95.98,97.54 99.33,98.46 105,97.25 C116.67,94.73 115.09,84.48 113.17,60.73 Z" fill="url(#b)"/>
  <path d="M57.519,92.344 Q60.057,97.769 69.894,99.257 Q75.984,100.182 82.689,95.291 Q83.732,94.53 84.136,94.316 Q88.435,92.037 96.26,94.759 Q101.845,96.702 104.779,96.285 Q111.751,95.287 113.37,88.629 Q114.974,82.033 112.341,66.491 Q112.091,65.012 113.569,64.761 Q115.048,64.511 115.299,65.989 Q118.035,82.141 116.285,89.338 Q114.186,97.969 105.201,99.255 Q101.547,99.774 95.275,97.593 Q88.684,95.3 85.544,96.964 Q85.328,97.079 84.457,97.715 Q76.754,103.334 69.446,102.223 Q58.02,100.495 54.801,93.616 Q54.484,92.936 54.664,92.438 Q54.845,91.939 55.524,91.621 Q56.883,90.986 57.519,92.344 Z" fill="#4A2F27"/>
  <path d="M69.47,15.94 C73.21,15.94 76.68,17.56 79.01,20.39 C80.68,22.42 83.12,23.58 85.71,23.58 C87.01,23.58 88.26,23.29 89.43,22.71 C91.37,21.75 93.33,21.27 95.28,21.27 C100.74,21.28 104.35,24.85 107.36,33.2 C107.85,34.55 108.39,35.95 108.97,37.43 C110.89,42.37 113.28,48.52 115.31,57.52 C116.7,63.67 118.02,70.16 119.23,76.79 C121,86.55 119.39,96.49 114.67,104.77 C111.74,109.93 109.69,110.89 108.95,111.06 C107.69,111.36 106.64,111.5 105.76,111.5 C104.46,111.5 103.59,111.19 102.27,110.71 C100.13,109.95 97.48,108.99 92.29,108.99 L91.74,108.99 C86.74,109.05 82.59,110.07 79.26,110.89 C76.75,111.51 74.58,112.04 72.69,112.04 C71.95,112.04 71.28,111.96 70.64,111.79 C70.41,111.73 70.17,111.69 69.92,111.69 C67.89,111.66 66.23,110.24 65.2,109.07 C62.77,106.29 61.28,101.89 61.67,98.62 C61.79,97.58 61.36,96.55 60.54,95.9 C59.48,95.07 58.58,94.1 57.86,93.03 C56.36,90.79 53.89,89.46 51.26,89.46 C50,89.46 48.75,89.78 47.64,90.38 C45.29,91.65 42.62,92.32 39.94,92.32 C39.66,92.32 39.38,92.31 39.1,92.3 C36.41,92.15 33.64,90.88 31.31,88.7 C29.13,86.67 26.4,85.56 23.6,85.56 C23.22,85.56 22.84,85.58 22.47,85.62 C22.42,85.62 22.36,85.63 22.3,85.63 C21.09,85.63 18.39,85.22 16.94,84.94 C14.71,84.51 13.13,83.37 11.99,81.37 C6.77,72.2 13.05,49.51 15.91,41.55 C15.93,41.49 15.95,41.43 15.97,41.38 C18.67,32.14 21.06,27.44 26.67,27.44 C27.6,27.44 28.64,27.57 29.74,27.81 C29.95,27.86 30.17,27.88 30.39,27.88 L30.51,27.88 C32.44,27.88 34.8,26.89 36.24,25.48 C38.57,23.21 41.25,22 43.99,22 C44.16,22 44.33,22 44.5,22.01 C46,22.09 47.45,22.54 48.79,23.34 C50.04,24.09 51.47,24.48 52.91,24.48 C55.49,24.48 57.92,23.21 59.41,21.09 C61.65,17.87 65.42,15.94 69.47,15.94 M69.47,12.94 C64.26,12.94 59.66,15.49 56.92,19.39 C55.95,20.77 54.44,21.5 52.88,21.5 C52,21.5 51.11,21.27 50.3,20.78 C48.59,19.76 46.68,19.14 44.64,19.03 C44.42,19.02 44.19,19.01 43.97,19.01 C40.33,19.01 36.9,20.63 34.12,23.34 C33.28,24.16 31.67,24.88 30.49,24.88 L30.37,24.88 C29.02,24.58 27.78,24.44 26.65,24.44 C18.46,24.44 15.61,31.85 13.07,40.54 C13.07,40.54 -2.65,84.23 16.35,87.9 C17.65,88.15 20.7,88.65 22.28,88.65 C22.47,88.65 22.64,88.64 22.78,88.63 C23.05,88.6 23.32,88.59 23.59,88.59 C25.69,88.59 27.7,89.48 29.26,90.93 C32.04,93.52 35.46,95.14 38.93,95.33 C39.26,95.35 39.6,95.36 39.93,95.36 C43.04,95.36 46.23,94.58 49.05,93.06 C49.75,92.68 50.5,92.5 51.24,92.5 C52.84,92.5 54.4,93.32 55.35,94.74 C56.29,96.14 57.42,97.32 58.68,98.3 C57.89,104.95 62.92,114.62 69.86,114.73 C70.79,114.98 71.72,115.08 72.68,115.08 C77.76,115.08 83.39,112.14 91.77,112.03 L92.29,112.03 C100.36,112.03 101.45,114.53 105.76,114.53 C106.81,114.53 108.05,114.38 109.63,114.01 C112.45,113.35 115.06,110.17 117.27,106.28 C122.43,97.21 124.04,86.55 122.17,76.28 C121.19,70.86 119.86,64.11 118.23,56.88 C115.53,44.96 112.27,38.01 110.18,32.2 C107.38,24.43 103.33,18.3 95.29,18.29 L95.26,18.29 C92.67,18.29 90.23,18.99 88.11,20.04 C87.35,20.42 86.53,20.6 85.72,20.6 C84.07,20.6 82.44,19.85 81.34,18.51 C78.55,15.11 74.27,12.94 69.47,12.94 Z" fill="#4A2F27"/>
  <path d="M31.772,50.225 Q27.093,68.329 28.227,86.969 Q28.273,87.718 27.921,88.115 Q27.57,88.512 26.821,88.557 Q25.324,88.648 25.233,87.151 Q24.07,68.038 28.868,49.475 Q29.055,48.749 29.512,48.479 Q29.969,48.21 30.695,48.398 Q32.148,48.773 31.772,50.225 Z" fill="#4A2F27"/>
  <path d="M55.316,49.062 Q54.242,56.971 54.226,72.916 Q54.211,88.717 55.188,90.896 Q55.803,92.264 54.434,92.879 Q53.066,93.493 52.451,92.124 Q51.21,89.358 51.226,72.914 Q51.242,56.767 52.344,48.658 Q52.546,47.172 54.032,47.374 Q55.518,47.576 55.316,49.062 Z" fill="#4A2F27"/>
  <path d="M83.32,44.256 Q87.213,67.871 87.57,93.969 Q87.59,95.469 86.091,95.49 Q84.591,95.51 84.57,94.011 Q84.216,68.137 80.36,44.744 Q80.116,43.264 81.596,43.02 Q82.336,42.898 82.767,43.207 Q83.198,43.516 83.32,44.256 Z" fill="#4A2F27"/>
</svg>

<svg viewBox="0 0 128 128" xmlns="http://www.w3.org/2000/svg" xmlns:xlink="http://www.w3.org/1999/xlink">
  <path d="m81.56 73.92c0.24 3.11-1.7 5.91-4.74 6.68-1.87 0.47-1.08 3.37 0.8 2.89 4.25-1.08 7.28-5.18 6.95-9.57-0.16-1.92-3.16-1.93-3.01 0z" fill="#EDA600"/>
  <radialGradient id="c" cx="-432.8" cy="-2696.2" gradientTransform="matrix(.7169 -.0587 -.0651 -.7957 224.19 -2095.7)" gradientUnits="userSpaceOnUse" r="44.273">
    <stop offset=".3" stop-color="#70534A"/>
    <stop offset=".8" stop-color="#5C4037"/>
  </radialGradient>
  <path d="m72.67 113.56c-0.88 0-1.67-0.1-2.43-0.3-0.12-0.03-0.24-0.05-0.36-0.05-2.77-0.04-4.88-1.95-6.16-3.54-2.7-3.34-4.15-8.34-3.45-11.89 0.91-4.6 3.63-10.09 11.41-10.09 0.74 0 1.51 0.05 2.31 0.15 4.12 0.51 7.79 0.76 10.89 0.76 12.38 0 16.27-3.96 18.3-9.9 2.43-7.13 4.81-33.31 5.74-44.5 2.17 4.47 5.42 12.27 7.85 22.99 1.4 6.19 2.72 12.69 3.93 19.34 1.84 10.11 0.16 20.41-4.73 28.99-2.95 5.19-5.26 6.68-6.68 7.01-1.38 0.32-2.53 0.48-3.53 0.48-1.56 0-2.64-0.39-4-0.87-2.03-0.72-4.55-1.63-9.47-1.63h-0.54c-4.83 0.06-8.71 1.02-12.14 1.86-2.61 0.64-4.86 1.19-6.94 1.19z" fill="url(#c)"/>
  <path d="m109.91 40.13c1.78 4.38 3.77 10.22 5.39 17.39 1.39 6.15 2.71 12.64 3.91 19.27 1.77 9.76 0.16 19.7-4.56 27.98-2.93 5.16-4.98 6.12-5.72 6.29-1.26 0.3-2.31 0.44-3.19 0.44-1.3 0-2.17-0.31-3.5-0.79-2.14-0.76-4.8-1.72-9.98-1.72h-0.55c-5 0.06-9.15 1.08-12.48 1.9-2.51 0.62-4.68 1.15-6.57 1.15-0.74 0-1.41-0.08-2.05-0.25-0.23-0.06-0.47-0.1-0.72-0.1-2.3-0.04-4.13-1.89-5.02-2.98-2.41-2.98-3.76-7.56-3.14-10.66 1.17-5.89 4.51-8.88 9.94-8.88 0.68 0 1.39 0.05 2.13 0.14 4.24 0.52 7.86 0.77 11.07 0.77 11.36 0 17.07-3.16 19.72-10.92 2.12-6.18 4.18-26.28 5.32-39.03m-2.09-11.11s-3.05 40.32-6.07 49.2c-1.75 5.13-5.02 8.89-16.88 8.89-2.99 0-6.52-0.24-10.7-0.75-0.87-0.11-1.7-0.16-2.49-0.16-7.4 0-11.53 4.52-12.88 11.29-1.32 6.64 3.84 17.11 11.06 17.22 0.93 0.25 1.86 0.35 2.82 0.35 5.08 0 10.71-2.94 19.09-3.05h0.52c8.07 0 9.16 2.5 13.47 2.5 1.05 0 2.29-0.15 3.87-0.52 2.82-0.66 5.43-3.84 7.64-7.73 5.16-9.07 6.77-19.73 4.9-30-0.98-5.42-2.31-12.17-3.94-19.4-4.09-18.04-10.41-27.84-10.41-27.84z" fill="#4A2F27"/>
  <radialGradient id="b" cx="44.233" cy="38.396" gradientUnits="userSpaceOnUse" r="89.07">
    <stop offset=".4" stop-color="#70534A"/>
    <stop offset=".9991" stop-color="#5C4037"/>
  </radialGradient>
  <path d="m113.17 60.73c-1.57-19.41-1.88-42.43-17.89-42.46-2.6-0.01-5.05 0.7-7.18 1.75-2.3 1.14-5.05 0.6-6.66-1.4-2.78-3.46-7.1-5.68-11.97-5.68-5.21 0-9.81 2.55-12.55 6.45-1.51 2.15-4.37 2.74-6.63 1.39-1.71-1.02-3.62-1.64-5.66-1.75-4.11-0.22-8 1.63-11.03 4.83-0.84 0.89-2.06 1.29-3.25 1.03-11.12-2.47-14.42 5.77-17.3 15.65 0 0-15.72 43.69 3.28 47.36 1.45 0.28 5.11 0.87 6.43 0.73 2.38-0.26 4.72 0.66 6.47 2.29 2.78 2.59 6.2 4.21 9.67 4.4 3.42 0.19 7-0.59 10.13-2.28 2.21-1.19 4.9-0.4 6.3 1.69 2.98 4.45 7.68 6.85 13.33 6.85 4.52 0 9.73-1.32 12.85-4.36 3.34-3.26 8.44-3.7 12.32-1.11 2.15 1.43 5.5 2.35 11.17 1.14 11.67-2.52 10.09-12.77 8.17-36.52z" fill="url(#b)"/>
  <defs>
    <path id="a" d="m117.15 81.34-6.05-48.22c-1.65-11.12-7.44-15.22-15.82-14.86-2.6 0.11-5.05 0.7-7.18 1.75-2.3 1.14-5.05 0.6-6.66-1.4-2.78-3.46-7.1-5.68-11.97-5.68-5.23 0-9.84 2.57-12.57 6.48-1.49 2.14-4.33 2.73-6.57 1.38-1.72-1.03-3.64-1.65-5.69-1.77-4.12-0.23-8.01 1.63-11.04 4.84-0.83 0.88-2.04 1.28-3.22 1.02h-0.02c-11.12-2.47-14.42 5.77-17.3 15.65l-7.83 30.5c-1.18 10.37 4.84 16.93 13.34 17.63 1.48 0.12 2.89 0.11 4.22-0.03 2.37-0.26 4.7 0.66 6.45 2.28 2.78 2.59 6.2 4.22 9.68 4.41 3.42 0.19 7-0.59 10.13-2.28 2.21-1.19 4.9-0.4 6.3 1.69 2.98 4.45 8.47 7.45 14.12 7.45 4.41 0 8.73-1.83 11.83-4.75 3.49-3.29 8.82-3.61 12.9-1.1 2.13 1.31 5.17 2.22 10.61 1.48 11.71-1.59 13.61-6.34 12.34-16.47z"/>
  </defs>
  <clipPath>
    <use xlink:href="#a"/>
  </clipPath>
  <path d="m56.16 92.98c1.31 2.8 4.45 6.39 13.51 7.76 8.16 1.24 13.44-4.18 15.17-5.1 6.66-3.53 12.69 3.19 20.15 2.13 11.04-1.58 12.25-11.34 8.83-31.53" fill="none" stroke="#4A2F27" stroke-linecap="round" stroke-linejoin="round" stroke-miterlimit="10" stroke-width="3"/>
  <path d="m69.47 15.94c3.74 0 7.21 1.62 9.54 4.45 1.67 2.03 4.11 3.19 6.7 3.19 1.3 0 2.55-0.29 3.72-0.87 1.94-0.96 3.9-1.44 5.85-1.44 5.46 0.01 9.07 3.58 12.08 11.93 0.49 1.35 1.03 2.75 1.61 4.23 1.92 4.94 4.31 11.09 6.34 20.09 1.39 6.15 2.71 12.64 3.92 19.27 1.77 9.76 0.16 19.7-4.56 27.98-2.93 5.16-4.98 6.12-5.72 6.29-1.26 0.3-2.31 0.44-3.19 0.44-1.3 0-2.17-0.31-3.49-0.79-2.14-0.76-4.79-1.72-9.98-1.72h-0.55c-5 0.06-9.15 1.08-12.48 1.9-2.51 0.62-4.68 1.15-6.57 1.15-0.74 0-1.41-0.08-2.05-0.25-0.23-0.06-0.47-0.1-0.72-0.1-2.03-0.03-3.69-1.45-4.72-2.62-2.43-2.78-3.92-7.18-3.53-10.45 0.12-1.04-0.31-2.07-1.13-2.72-1.06-0.83-1.96-1.8-2.68-2.87-1.5-2.24-3.97-3.57-6.6-3.57-1.26 0-2.51 0.32-3.62 0.92-2.35 1.27-5.02 1.94-7.7 1.94-0.28 0-0.56-0.01-0.84-0.02-2.69-0.15-5.46-1.42-7.79-3.6-2.18-2.03-4.91-3.14-7.71-3.14-0.38 0-0.76 0.02-1.13 0.06-0.05 0-0.11 0.01-0.17 0.01-1.21 0-3.91-0.41-5.36-0.69-2.23-0.43-3.81-1.57-4.95-3.57-5.22-9.17 1.06-31.86 3.92-39.82 0.02-0.06 0.04-0.12 0.06-0.17 2.7-9.24 5.09-13.94 10.7-13.94 0.93 0 1.97 0.13 3.07 0.37 0.21 0.05 0.43 0.07 0.65 0.07h0.12c1.93 0 4.29-0.99 5.73-2.4 2.33-2.27 5.01-3.48 7.75-3.48 0.17 0 0.34 0 0.51 0.01 1.5 0.08 2.95 0.53 4.29 1.33 1.25 0.75 2.68 1.14 4.12 1.14 2.58 0 5.01-1.27 6.5-3.39 2.24-3.22 6.01-5.15 10.06-5.15m0-3c-5.21 0-9.81 2.55-12.55 6.45-0.97 1.38-2.48 2.11-4.04 2.11-0.88 0-1.77-0.23-2.58-0.72-1.71-1.02-3.62-1.64-5.66-1.75-0.22-0.01-0.45-0.02-0.67-0.02-3.64 0-7.07 1.62-9.85 4.33-0.84 0.82-2.45 1.54-3.63 1.54h-0.12c-1.35-0.3-2.59-0.44-3.72-0.44-8.19 0-11.04 7.41-13.58 16.1 0 0-15.72 43.69 3.28 47.36 1.3 0.25 4.35 0.75 5.93 0.75 0.19 0 0.36-0.01 0.5-0.02 0.27-0.03 0.54-0.04 0.81-0.04 2.1 0 4.11 0.89 5.67 2.34 2.78 2.59 6.2 4.21 9.67 4.4 0.33 0.02 0.67 0.03 1 0.03 3.11 0 6.3-0.78 9.12-2.3 0.7-0.38 1.45-0.56 2.19-0.56 1.6 0 3.16 0.82 4.11 2.24 0.94 1.4 2.07 2.58 3.33 3.56-0.79 6.65 4.24 16.32 11.18 16.43 0.93 0.25 1.86 0.35 2.82 0.35 5.08 0 10.71-2.94 19.09-3.05h0.52c8.07 0 9.16 2.5 13.47 2.5 1.05 0 2.29-0.15 3.87-0.52 2.82-0.66 5.43-3.84 7.64-7.73 5.16-9.07 6.77-19.73 4.9-30-0.98-5.42-2.31-12.17-3.94-19.4-2.7-11.92-5.96-18.87-8.05-24.68-2.8-7.77-6.85-13.9-14.89-13.91h-0.03c-2.59 0-5.03 0.7-7.15 1.75-0.76 0.38-1.58 0.56-2.39 0.56-1.65 0-3.28-0.75-4.38-2.09-2.79-3.4-7.07-5.57-11.87-5.57z" fill="#4A2F27"/>
  <path d="m30.32 49.85c-3.13 12.11-4.35 24.72-3.59 37.21" fill="none" stroke="#4A2F27" stroke-linecap="round" stroke-linejoin="round" stroke-miterlimit="10" stroke-width="3"/>
  <path d="m53.83 48.86c-1.44 10.6-1.5 39.33-0.01 42.65" fill="none" stroke="#4A2F27" stroke-linecap="round" stroke-linejoin="round" stroke-miterlimit="10" stroke-width="3"/>
  <path d="m81.84 44.5c2.85 17.29 3.99 31.96 4.23 49.49" fill="none" stroke="#4A2F27" stroke-linecap="round" stroke-linejoin="round" stroke-miterlimit="10" stroke-width="3"/>
</svg>
